svg/fluentui-system-icons/ic_fluent_image_20_filled.svg

<svg width="20" height="20" viewBox="0 0 20 20" fill="none" xmlns="http://www.w3.org/2000/svg">
<path d="M6 3C4.34315 3 3 4.34315 3 6V14C3 14.6495 3.20642 15.2509 3.55724 15.7419L8.94759 10.4345C9.53144 9.85964 10.4686 9.85964 11.0524 10.4345L16.4428 15.7419C16.7936 15.2509 17 14.6495 17 14V6C17 4.34315 15.6569 3 14 3H6ZM6 17C5.35372 17 4.75517 16.7956 4.26544 16.448L9.6492 11.1471C9.84381 10.9555 10.1562 10.9555 10.3508 11.1471L15.7346 16.448C15.2448 16.7956 14.6463 17 14 17H6ZM12.5 8.75C11.8096 8.75 11.25 8.19036 11.25 7.5C11.25 6.80964 11.8096 6.25 12.5 6.25C13.1904 6.25 13.75 6.80964 13.75 7.5C13.75 8.19036 13.1904 8.75 12.5 8.75Z" fill="#212121"/>
</svg>

<svg xmlns="http://www.w3.org/2000/svg" width="20" height="20"><path d="M6 3a3 3 0 0 0-3 3v8c0 .65.206 1.25.557 1.742l5.39-5.308a1.5 1.5 0 0 1 2.105 0l5.39 5.308A2.975 2.975 0 0 0 17 14V6a3 3 0 0 0-3-3H6Zm0 14a2.987 2.987 0 0 1-1.735-.552l5.384-5.3a.5.5 0 0 1 .702 0l5.384 5.3A2.987 2.987 0 0 1 14 17H6Zm6.5-8.25a1.25 1.25 0 1 1 0-2.5 1.25 1.25 0 0 1 0 2.5Z"/></svg>
